X:14
T:My Love She's But A Lassie Yet
Q:1/4=200
M:4/4
L:1/8
Z:abc2nwc
K:D
|:dc|d2D2F2A2|d2D2D2dc|d2D2F2A2|e2E2E2dc|
d2D2F2A2|B2g2f2e2|dcBA B2c2|d2D2D2:|
|:fg|a2f2g2e2|f2d2d2fg|a2f2g2a2|b2e2e2fg|
a2f2g2e2|f2d2e2c2|dcBA B2c2|d2D2D2:|


